release-notes/images/pull-request.svg

<svg width="12" height="16" viewBox="0 0 12 16" xmlns="http://www.w3.org/2000/svg"><title>git-pull-request</title><path d="M11 11.28V5c-.03-.78-.34-1.47-.94-2.06C9.46 2.35 8.78 2.03 8 2H7V0L4 3l3 3V4h1c.27.02.48.11.69.31.21.2.3.42.31.69v6.28A1.993 1.993 0 0 0 10 15a1.993 1.993 0 0 0 1-3.72zm-1 2.92c-.66 0-1.2-.55-1.2-1.2 0-.65.55-1.2 1.2-1.2.65 0 1.2.55 1.2 1.2 0 .65-.55 1.2-1.2 1.2zM4 3c0-1.11-.89-2-2-2a1.993 1.993 0 0 0-1 3.72v6.56A1.993 1.993 0 0 0 2 15a1.993 1.993 0 0 0 1-3.72V4.72c.59-.34 1-.98 1-1.72zm-.8 10c0 .66-.55 1.2-1.2 1.2-.65 0-1.2-.55-1.2-1.2 0-.65.55-1.2 1.2-1.2.65 0 1.2.55 1.2 1.2zM2 4.2C1.34 4.2.8 3.65.8 3c0-.65.55-1.2 1.2-1.2.65 0 1.2.55 1.2 1.2 0 .65-.55 1.2-1.2 1.2z" fill="#000" fill-rule="evenodd"/></svg>

<?xml version="1.0" encoding="UTF-8"?>
<svg width="12px" height="16px" viewBox="0 0 12 16" version="1.1" xmlns="http://www.w3.org/2000/svg" xmlns:xlink="http://www.w3.org/1999/xlink">
    <!-- Generator: Sketch 40.3 (33839) - http://www.bohemiancoding.com/sketch -->
    <title>git-pull-request</title>
    <desc>Created with Sketch.</desc>
    <defs></defs>
    <g id="Octicons" stroke="none" stroke-width="1" fill="none" fill-rule="evenodd">
        <g id="git-pull-request" fill="#000000">
            <path d="M11,11.28 L11,5 C10.97,4.22 10.66,3.53 10.06,2.94 C9.46,2.35 8.78,2.03 8,2 L7,2 L7,0 L4,3 L7,6 L7,4 L8,4 C8.27,4.02 8.48,4.11 8.69,4.31 C8.9,4.51 8.99,4.73 9,5 L9,11.28 C8.41,11.62 8,12.26 8,13 C8,14.11 8.89,15 10,15 C11.11,15 12,14.11 12,13 C12,12.27 11.59,11.62 11,11.28 L11,11.28 Z M10,14.2 C9.34,14.2 8.8,13.65 8.8,13 C8.8,12.35 9.35,11.8 10,11.8 C10.65,11.8 11.2,12.35 11.2,13 C11.2,13.65 10.65,14.2 10,14.2 L10,14.2 Z M4,3 C4,1.89 3.11,1 2,1 C0.89,1 0,1.89 0,3 C0,3.73 0.41,4.38 1,4.72 L1,11.28 C0.41,11.62 0,12.26 0,13 C0,14.11 0.89,15 2,15 C3.11,15 4,14.11 4,13 C4,12.27 3.59,11.62 3,11.28 L3,4.72 C3.59,4.38 4,3.74 4,3 L4,3 Z M3.2,13 C3.2,13.66 2.65,14.2 2,14.2 C1.35,14.2 0.8,13.65 0.8,13 C0.8,12.35 1.35,11.8 2,11.8 C2.65,11.8 3.2,12.35 3.2,13 L3.2,13 Z M2,4.2 C1.34,4.2 0.8,3.65 0.8,3 C0.8,2.35 1.35,1.8 2,1.8 C2.65,1.8 3.2,2.35 3.2,3 C3.2,3.65 2.65,4.2 2,4.2 L2,4.2 Z" id="Shape"></path>
        </g>
    </g>
</svg>
